svg/daemon.svg

<svg id="Layer_1" data-name="Layer 1" xmlns="http://www.w3.org/2000/svg" viewBox="0 0 24 24"><defs><style>.cls-1{fill:#010101;}</style></defs><title>daemon</title><path class="cls-1" d="M20.23669,9.37352q.12846-.20548.23938-.42543a4.85011,4.85011,0,0,0,.20014-.45518A5.04545,5.04545,0,0,0,20.573,4.65536,4.942,4.942,0,0,0,17.79889,2.02l-.01529-.00414-.01529-.0041a5.026,5.026,0,0,1,.44635,4.47338l-.0018.00367-.0018.00366a9.04611,9.04611,0,0,0-2.80748-1.82674,8.98722,8.98722,0,0,0-6.80715,0A9.04623,9.04623,0,0,0,5.789,6.49242l-.00183-.00366-.00183-.00367a4.865,4.865,0,0,1-.27581-2.32961,5.2032,5.2032,0,0,1,.772-2.14377l-.01532.0041L6.25085,2.02a5.03986,5.03986,0,0,0-2.92706,6.473,4.85011,4.85011,0,0,0,.20014.45518q.1104.22.23938.42543a9.00432,9.00432,0,1,0,16.47338,0ZM15.5,8.99584a1.498,1.498,0,1,1-1.06126.43874A1.49527,1.49527,0,0,1,15.5,8.99584Zm-7,0a1.498,1.498,0,1,1-1.06126.43874A1.49527,1.49527,0,0,1,8.5,8.99584ZM12,18.523a5.43737,5.43737,0,0,1-3.12875-.985A5.54585,5.54585,0,0,1,6.89,15.023H17.11a5.54593,5.54593,0,0,1-1.98124,2.515A5.43737,5.43737,0,0,1,12,18.523Z"/></svg>

<svg id="Layer_1" data-name="Layer 1" xmlns="http://www.w3.org/2000/svg" viewBox="0 0 24 24"><defs><style>.cls-1{fill:#010101;}</style></defs><title>daemon</title><path class="cls-1" d="M20.23132,9.3657q.12838-.20559.23926-.42565a4.85691,4.85691,0,0,0,.20006-.45543,5.05268,5.05268,0,0,0-.10316-3.83957,4.942,4.942,0,0,0-2.77286-2.63681l-.01529-.00414L17.76405,2a5.03291,5.03291,0,0,1,.44615,4.47575l-.0018.00366-.0018.00367a9.04129,9.04129,0,0,0-2.8062-1.82771,8.975,8.975,0,0,0-6.80407,0A9.0413,9.0413,0,0,0,5.79018,6.48308l-.00183-.00367-.00183-.00366A4.87211,4.87211,0,0,1,5.51083,4.1449,5.20933,5.20933,0,0,1,6.28244,2l-.01531.0041-.01531.00414A5.044,5.044,0,0,0,3.32609,8.48462a4.85424,4.85424,0,0,0,.2.45543q.11034.22016.23926.42565a8.99949,8.99949,0,1,0,16.46592,0Zm-4.73455-.37788a1.498,1.498,0,1,1-1.06077.439A1.49388,1.49388,0,0,1,15.49677,8.98782Zm-6.99682,0a1.498,1.498,0,1,1-1.06078.439A1.49384,1.49384,0,0,1,8.5,8.98782ZM11.99836,18.52A5.43128,5.43128,0,0,1,8.871,17.53448a5.548,5.548,0,0,1-1.98033-2.51632H17.106a5.548,5.548,0,0,1-1.98033,2.51632A5.43128,5.43128,0,0,1,11.99836,18.52Z"/></svg>
